T: Dhow, The
M: 4/4
L: 1/8
K: Gmin
|: (3D=E>^F | ~ | G>BA>^F G2 :||: (3g^f>g |  ~ | G>BA>^F G2 :||: D/=E/^F | ~ | GBA^F G2 :||: g/^f/g |  ~ | GBA^F G2 :|
